SVG_Azure_Grouped/Management/Automation Start Stop VM.svg

<?xml version="1.0" encoding="UTF-8" standalone="no"?>
<!-- Generated by Microsoft Visio, SVG Export Automation Start Stop VM.svg Page-1 -->

<svg
   xmlns:dc="http://purl.org/dc/elements/1.1/"
   xmlns:cc="http://creativecommons.org/ns#"
   xmlns:rdf="http://www.w3.org/1999/02/22-rdf-syntax-ns#"
   xmlns:svg="http://www.w3.org/2000/svg"
   xmlns="http://www.w3.org/2000/svg"
   xmlns:sodipodi="http://sodipodi.sourceforge.net/DTD/sodipodi-0.dtd"
   xmlns:inkscape="http://www.inkscape.org/namespaces/inkscape"
   width="0.78743488in"
   height="0.78743488in"
   viewBox="0 0 56.695379 56.695599"
   xml:space="preserve"
   class="st6"
   version="1.1"
   id="svg59"
   sodipodi:docname="Automation Start Stop VM.svg"
   style="font-size:12px;overflow:visible;color-interpolation-filters:sRGB;fill:none;fill-rule:evenodd;stroke-linecap:square;stroke-miterlimit:3"
   inkscape:version="0.92.5 (2060ec1f9f, 2020-04-08)"><metadata
   id="metadata65"><rdf:RDF><cc:Work
       rdf:about=""><dc:format>image/svg+xml</dc:format><dc:type
         rdf:resource="http://purl.org/dc/dcmitype/StillImage" /></cc:Work></rdf:RDF></metadata><defs
   id="defs63" /><sodipodi:namedview
   pagecolor="#ffffff"
   bordercolor="#666666"
   borderopacity="1"
   objecttolerance="10"
   gridtolerance="10"
   guidetolerance="10"
   inkscape:pageopacity="0"
   inkscape:pageshadow="2"
   inkscape:window-width="640"
   inkscape:window-height="480"
   id="namedview61"
   showgrid="false"
   inkscape:zoom="1.7193066"
   inkscape:cx="37.795072"
   inkscape:cy="23.279613"
   inkscape:window-x="0"
   inkscape:window-y="0"
   inkscape:window-maximized="0"
   inkscape:current-layer="svg59" />
	<style
   type="text/css"
   id="style2">
	<![CDATA[
		.st1 {fill:#dd5900;stroke:none;stroke-linecap:butt;stroke-width:12.24}
		.st2 {fill:#3999c6;stroke:none;stroke-linecap:butt;stroke-width:12.24}
		.st3 {fill:#ffffff;stroke:none;stroke-linecap:butt;stroke-width:12.24}
		.st4 {fill:#ffffff;stroke:none;stroke-linecap:butt;stroke-width:13.6988}
		.st5 {fill:#ffffff;stroke:none;stroke-linecap:butt;stroke-width:12.4077}
		.st6 {fill:none;fill-rule:evenodd;font-size:12px;overflow:visible;stroke-linecap:square;stroke-miterlimit:3}
	]]>
	</style>

	<g
   id="g57"
   transform="translate(-12.24016,-12.2387)">
		<title
   id="title4">Page-1</title>
		<g
   id="group13069-1"
   transform="translate(12.24,-34.0157)">
			<title
   id="title6">Automation Start Stop VM.13069</title>
			<g
   id="group13070-2">
				<title
   id="title8">g20</title>
				<g
   id="shape13071-3">
					<title
   id="title10">path4</title>
					<path
   d="m 0,66.67 h 17.01 v 17 H 0 Z m 0,19.27 h 17.01 v 17.01 H 0 Z m 19.28,0 h 17 v 17.01 h -17 z"
   class="st1"
   id="path12"
   inkscape:connector-curvature="0"
   style="fill:#dd5900;stroke:none;stroke-width:12.23999977;stroke-linecap:butt" />
				</g>
				<g
   id="shape13072-5"
   transform="translate(19.2756,-19.2756)">
					<title
   id="title15">path6</title>
					<path
   d="M 18.71,65.53 C 8.24,65.53 0,73.77 0,84.24 v 18.71 h 18.71 c 10.47,0 18.71,-8.24 18.71,-18.71 0,-10.47 -8.24,-18.71 -18.71,-18.71 z"
   class="st2"
   id="path17"
   inkscape:connector-curvature="0"
   style="fill:#3999c6;stroke:none;stroke-width:12.23999977;stroke-linecap:butt" />
				</g>
				<g
   id="shape13073-7"
   transform="translate(22.6772,-24.9449)">
					<title
   id="title20">circle8</title>
					<circle
   cx="3.4015701"
   cy="99.547096"
   class="st3"
   id="ellipse22"
   r="3.4015701"
   style="fill:#ffffff;stroke:none;stroke-width:12.23999977;stroke-linecap:butt" />
				</g>
				<g
   id="shape13074-9"
   transform="translate(38.5512,-28.3465)">
					<title
   id="title25">circle10</title>
					<circle
   cx="3.4015701"
   cy="99.547096"
   class="st3"
   id="ellipse27"
   r="3.4015701"
   style="fill:#ffffff;stroke:none;stroke-width:12.23999977;stroke-linecap:butt" />
				</g>
				<g
   id="shape13075-11"
   transform="translate(30.6142,-37.4173)">
					<title
   id="title30">circle12</title>
					<circle
   cx="3.4015701"
   cy="99.547096"
   class="st3"
   id="ellipse32"
   r="3.4015701"
   style="fill:#ffffff;stroke:none;stroke-width:12.23999977;stroke-linecap:butt" />
				</g>
				<g
   id="shape13076-13"
   transform="translate(45.3543,-40.8189)">
					<title
   id="title35">circle16</title>
					<circle
   cx="3.4015701"
   cy="99.547096"
   class="st3"
   id="ellipse37"
   r="3.4015701"
   style="fill:#ffffff;stroke:none;stroke-width:12.23999977;stroke-linecap:butt" />
				</g>
				<g
   id="shape13077-15"
   transform="translate(42.0166,-34.0545)">
					<title
   id="title40">path5229</title>
					<path
   d="m 0,102.01 4.32,-7.17 1.88,1.15 -4.16,6.96 z"
   class="st3"
   id="path42"
   inkscape:connector-curvature="0"
   style="fill:#ffffff;stroke:none;stroke-width:12.23999977;stroke-linecap:butt" />
				</g>
				<g
   id="shape13078-17"
   transform="translate(26.2891,-30.3235)">
					<title
   id="title45">path5229-2</title>
					<path
   d="m 0,101.9 4.84,-8 2.12,1.28 -4.67,7.77 z"
   class="st4"
   id="path47"
   inkscape:connector-curvature="0"
   style="fill:#ffffff;stroke:none;stroke-width:13.69880009;stroke-linecap:butt" />
				</g>
				<g
   id="shape13079-19"
   transform="translate(35.2434,-32.6808)">
					<title
   id="title50">path5229-7</title>
					<path
   d="m 0.79,95.33 5.98,5.3 -0.96,2.32 L 0,97.84 Z"
   class="st5"
   id="path52"
   inkscape:connector-curvature="0"
   style="fill:#ffffff;stroke:none;stroke-width:12.40769958;stroke-linecap:butt" />
				</g>
			</g>
		</g>
	</g>
</svg>

<?xml version="1.0" encoding="UTF-8" standalone="no"?>
<!DOCTYPE svg PUBLIC "-//W3C//DTD SVG 1.1//EN" "http://www.w3.org/Graphics/SVG/1.1/DTD/svg11.dtd">
<!-- Generated by Microsoft Visio, SVG Export Automation Start Stop VM.svg Page-1 -->
<svg xmlns="http://www.w3.org/2000/svg" xmlns:xlink="http://www.w3.org/1999/xlink" xmlns:ev="http://www.w3.org/2001/xml-events"
		width="1.1274in" height="1.42984in" viewBox="0 0 81.1729 102.949" xml:space="preserve" color-interpolation-filters="sRGB"
		class="st6">
	<style type="text/css">
	<![CDATA[
		.st1 {fill:#dd5900;stroke:none;stroke-linecap:butt;stroke-width:12.24}
		.st2 {fill:#3999c6;stroke:none;stroke-linecap:butt;stroke-width:12.24}
		.st3 {fill:#ffffff;stroke:none;stroke-linecap:butt;stroke-width:12.24}
		.st4 {fill:#ffffff;stroke:none;stroke-linecap:butt;stroke-width:13.6988}
		.st5 {fill:#ffffff;stroke:none;stroke-linecap:butt;stroke-width:12.4077}
		.st6 {fill:none;fill-rule:evenodd;font-size:12px;overflow:visible;stroke-linecap:square;stroke-miterlimit:3}
	]]>
	</style>

	<g>
		<title>Page-1</title>
		<g id="group12776-1" transform="translate(12.24,-34.0157)">
			<title>Automation Start Stop VM.12776</title>
			<g id="group12777-2">
				<title>g20</title>
				<g id="shape12778-3">
					<title>path4</title>
					<path d="M0 66.67 L17.01 66.67 L17.01 83.67 L0 83.67 L0 66.67 ZM0 85.94 L17.01 85.94 L17.01 102.95 L0 102.95
								 L0 85.94 ZM19.28 85.94 L36.28 85.94 L36.28 102.95 L19.28 102.95 L19.28 85.94 Z" class="st1"/>
				</g>
				<g id="shape12779-5" transform="translate(19.2756,-19.2756)">
					<title>path6</title>
					<path d="M18.71 65.53 C8.24 65.53 0 73.77 0 84.24 L0 102.95 L18.71 102.95 C29.18 102.95 37.42 94.71 37.42 84.24
								 C37.42 73.77 29.18 65.53 18.71 65.53 Z" class="st2"/>
				</g>
				<g id="shape12780-7" transform="translate(22.6772,-24.9449)">
					<title>circle8</title>
					<ellipse cx="3.40157" cy="99.5471" rx="3.40157" ry="3.40157" class="st3"/>
				</g>
				<g id="shape12781-9" transform="translate(38.5512,-28.3465)">
					<title>circle10</title>
					<ellipse cx="3.40157" cy="99.5471" rx="3.40157" ry="3.40157" class="st3"/>
				</g>
				<g id="shape12782-11" transform="translate(30.6142,-37.4173)">
					<title>circle12</title>
					<ellipse cx="3.40157" cy="99.5471" rx="3.40157" ry="3.40157" class="st3"/>
				</g>
				<g id="shape12783-13" transform="translate(45.3543,-40.8189)">
					<title>circle16</title>
					<ellipse cx="3.40157" cy="99.5471" rx="3.40157" ry="3.40157" class="st3"/>
				</g>
				<g id="shape12784-15" transform="translate(42.0166,-34.0545)">
					<title>path5229</title>
					<path d="M0 102.01 L4.32 94.84 L6.2 95.99 L2.04 102.95 L0 102.01 Z" class="st3"/>
				</g>
				<g id="shape12785-17" transform="translate(26.2891,-30.3235)">
					<title>path5229-2</title>
					<path d="M0 101.9 L4.84 93.9 L6.96 95.18 L2.29 102.95 L0 101.9 Z" class="st4"/>
				</g>
				<g id="shape12786-19" transform="translate(35.2434,-32.6808)">
					<title>path5229-7</title>
					<path d="M0.79 95.33 L6.77 100.63 L5.81 102.95 L0 97.84 L0.79 95.33 Z" class="st5"/>
				</g>
			</g>
		</g>
	</g>
</svg>
